X:0
T:Smile
C:Uncle Kracker
M:2/2
L:1/8
Q:1/4=140
K:E

z3 B, BAGA | G4 z4 | z3 B BAGA |
G2 E E2 B2 B3 z2 B A G A | G2 E E2 F3 |
G E3 z F3 | E4 z4 | z3 E BAGA | 
G4 z4 | z4 BAGA | G2 E E3 B B2
E2 E2 G2 B2 E2 E2 E F E3 z4 G A2 G2 F3
F E | F2 F F2 G2 A2 G3 F2 E E5 z4 |
z2 B B2 c2 e3 c B B2 z e3 c B B2 z e3
c B B2 z e2 e c B B2 z e3 c B B c z e2
c c B B2 c G2 F3 z4 | z2 B B2 c2 e3 c 
B B2 e f3 c B B2 z e3 c2 B2 z e3 c B B2
z2 | e2 c B2 c2 e2 c2 B2 c3 | G F3 z3 A3
B G2 G3 | G F E6 |
